public/assets/img/program1-2.svg

<svg width="39" height="33" viewBox="0 0 39 33" fill="none" xmlns="http://www.w3.org/2000/svg">
<path d="M35.875 17.5V1.875C35.8744 1.37789 35.6718 0.901305 35.3115 0.549796C34.9512 0.198287 34.4627 0.000562021 33.9531 0H1.92188C1.41234 0.000562021 0.923837 0.198287 0.56354 0.549796C0.203244 0.901305 0.000576072 1.37789 0 1.875V23.125C0.000576072 23.6221 0.203244 24.0987 0.56354 24.4502C0.923837 24.8017 1.41234 24.9994 1.92188 25H14.0938V28.75H12.1719C12.002 28.75 11.839 28.8158 11.7189 28.9331C11.5987 29.0503 11.5313 29.2092 11.5312 29.375V31.875C11.5313 32.0408 11.5987 32.1997 11.7189 32.3169C11.839 32.4342 12.002 32.5 12.1719 32.5H23.7031C23.873 32.5 24.036 32.4342 24.1561 32.3169C24.2763 32.1997 24.3437 32.0408 24.3438 31.875V29.375C24.3437 29.2092 24.2763 29.0503 24.1561 28.9331C24.036 28.8158 23.873 28.75 23.7031 28.75H21.7812V25H24.3438V23.75H1.92188C1.75203 23.7498 1.5892 23.6839 1.4691 23.5667C1.349 23.4496 1.28144 23.2907 1.28125 23.125V5H34.5938V17.5H35.875ZM23.0625 31.25H12.8125V30H23.0625V31.25ZM17.2969 25V26.25C17.2969 26.4158 17.3644 26.5747 17.4845 26.6919C17.6046 26.8092 17.7676 26.875 17.9375 26.875C18.1074 26.875 18.2704 26.8092 18.3905 26.6919C18.5106 26.5747 18.5781 26.4158 18.5781 26.25V25H20.5V28.75H15.375V25H17.2969ZM1.28125 3.75V1.875C1.28144 1.7093 1.349 1.55044 1.4691 1.43327C1.5892 1.3161 1.75203 1.25019 1.92188 1.25H33.9531C34.123 1.25019 34.2858 1.3161 34.4059 1.43327C34.526 1.55044 34.5936 1.7093 34.5938 1.875V3.75H1.28125Z" fill="white"/>
<path d="M2.5625 3.125C2.91631 3.125 3.20312 2.84518 3.20312 2.5C3.20312 2.15482 2.91631 1.875 2.5625 1.875C2.20869 1.875 1.92188 2.15482 1.92188 2.5C1.92188 2.84518 2.20869 3.125 2.5625 3.125Z" fill="white"/>
<path d="M4.48438 3.125C4.83818 3.125 5.125 2.84518 5.125 2.5C5.125 2.15482 4.83818 1.875 4.48438 1.875C4.13057 1.875 3.84375 2.15482 3.84375 2.5C3.84375 2.84518 4.13057 3.125 4.48438 3.125Z" fill="white"/>
<path d="M6.40625 3.125C6.76006 3.125 7.04688 2.84518 7.04688 2.5C7.04688 2.15482 6.76006 1.875 6.40625 1.875C6.05244 1.875 5.76562 2.15482 5.76562 2.5C5.76562 2.84518 6.05244 3.125 6.40625 3.125Z" fill="white"/>
<path d="M37.7969 18.75H26.2656C26.0957 18.75 25.9328 18.8158 25.8126 18.9331C25.6925 19.0503 25.625 19.2092 25.625 19.375V31.875C25.625 32.0408 25.6925 32.1997 25.8126 32.3169C25.9328 32.4342 26.0957 32.5 26.2656 32.5H37.7969C37.9668 32.5 38.1297 32.4342 38.2499 32.3169C38.37 32.1997 38.4375 32.0408 38.4375 31.875V19.375C38.4375 19.2092 38.37 19.0503 38.2499 18.9331C38.1297 18.8158 37.9668 18.75 37.7969 18.75ZM31.3906 28.75V27.5H32.6719V28.75H31.3906ZM32.6719 30V31.25H31.3906V30H32.6719ZM26.9062 27.5H30.1094V28.75H26.9062V27.5ZM26.9062 25H30.1094V26.25H26.9062V25ZM31.3906 20H32.6719V23.75H31.3906V20ZM32.6719 25V26.25H31.3906V25H32.6719ZM33.9531 25H37.1562V26.25H33.9531V25ZM33.9531 27.5H37.1562V28.75H33.9531V27.5ZM37.1562 23.75H33.9531V22.5H35.875V21.25H33.9531V20H37.1562V23.75ZM30.1094 20V21.25H28.1875V22.5H30.1094V23.75H26.9062V20H30.1094ZM26.9062 30H30.1094V31.25H26.9062V30ZM37.1562 31.25H33.9531V30H37.1562V31.25Z" fill="white"/>
<path d="M3.20312 8.75C3.03322 8.75 2.87028 8.81585 2.75014 8.93306C2.63 9.05027 2.5625 9.20924 2.5625 9.375V15.625C2.5625 15.7908 2.63 15.9497 2.75014 16.0669C2.87028 16.1842 3.03322 16.25 3.20312 16.25H5.76562C5.93553 16.25 6.09847 16.1842 6.21861 16.0669C6.33875 15.9497 6.40625 15.7908 6.40625 15.625V9.375C6.40625 9.20924 6.33875 9.05027 6.21861 8.93306C6.09847 8.81585 5.93553 8.75 5.76562 8.75H3.20312ZM5.125 10V12.5H3.84375V10H5.125ZM3.84375 15V13.75H5.125V15H3.84375Z" fill="white"/>
<path d="M7.6875 13.125C7.5176 13.125 7.35465 13.1909 7.23451 13.3081C7.11437 13.4253 7.04688 13.5842 7.04688 13.75V17.5C7.04688 17.6658 7.11437 17.8247 7.23451 17.9419C7.35465 18.0592 7.5176 18.125 7.6875 18.125H10.25C10.4199 18.125 10.5828 18.0592 10.703 17.9419C10.8231 17.8247 10.8906 17.6658 10.8906 17.5V13.75C10.8906 13.5842 10.8231 13.4253 10.703 13.3081C10.5828 13.1909 10.4199 13.125 10.25 13.125H7.6875ZM9.60938 16.875H8.32812V14.375H9.60938V16.875Z" fill="white"/>
<path d="M12.1719 8.75C12.002 8.75 11.839 8.81585 11.7189 8.93306C11.5987 9.05027 11.5313 9.20924 11.5312 9.375V16.25C11.5313 16.4158 11.5987 16.5747 11.7189 16.6919C11.839 16.8092 12.002 16.875 12.1719 16.875H14.7344C14.9043 16.875 15.0672 16.8092 15.1874 16.6919C15.3075 16.5747 15.375 16.4158 15.375 16.25V9.375C15.375 9.20924 15.3075 9.05027 15.1874 8.93306C15.0672 8.81585 14.9043 8.75 14.7344 8.75H12.1719ZM14.0938 10V13.125H12.8125V10H14.0938ZM12.8125 15.625V14.375H14.0938V15.625H12.8125Z" fill="white"/>
<path d="M16.6562 13.125C16.4863 13.125 16.3234 13.1909 16.2033 13.3081C16.0831 13.4253 16.0156 13.5842 16.0156 13.75V21.875C16.0156 22.0408 16.0831 22.1997 16.2033 22.3169C16.3234 22.4342 16.4863 22.5 16.6562 22.5H19.2188C19.3887 22.5 19.5516 22.4342 19.6717 22.3169C19.7919 22.1997 19.8594 22.0408 19.8594 21.875V13.75C19.8594 13.5842 19.7919 13.4253 19.6717 13.3081C19.5516 13.1909 19.3887 13.125 19.2188 13.125H16.6562ZM18.5781 14.375V16.875H17.2969V14.375H18.5781ZM17.2969 21.25V18.125H18.5781V21.25H17.2969Z" fill="white"/>
<path d="M21.1406 11.25C20.9707 11.25 20.8078 11.3159 20.6876 11.4331C20.5675 11.5503 20.5 11.7092 20.5 11.875V16.25C20.5 16.4158 20.5675 16.5747 20.6876 16.6919C20.8078 16.8092 20.9707 16.875 21.1406 16.875H23.7031C23.873 16.875 24.036 16.8092 24.1561 16.6919C24.2763 16.5747 24.3437 16.4158 24.3438 16.25V11.875C24.3437 11.7092 24.2763 11.5503 24.1561 11.4331C24.036 11.3159 23.873 11.25 23.7031 11.25H21.1406ZM23.0625 15.625H21.7812V12.5H23.0625V15.625Z" fill="white"/>
<path d="M25.625 8.125C25.4551 8.125 25.2922 8.19085 25.172 8.30806C25.0519 8.42527 24.9844 8.58424 24.9844 8.75V14.375C24.9844 14.5408 25.0519 14.6997 25.172 14.8169C25.2922 14.9341 25.4551 15 25.625 15H28.1875C28.3574 15 28.5203 14.9341 28.6405 14.8169C28.7606 14.6997 28.8281 14.5408 28.8281 14.375V8.75C28.8281 8.58424 28.7606 8.42527 28.6405 8.30806C28.5203 8.19085 28.3574 8.125 28.1875 8.125H25.625ZM27.5469 9.375V11.25H26.2656V9.375H27.5469ZM26.2656 13.75V12.5H27.5469V13.75H26.2656Z" fill="white"/>
<path d="M30.1094 6.25C29.9395 6.25 29.7765 6.31585 29.6564 6.43306C29.5362 6.55027 29.4688 6.70924 29.4688 6.875V11.875C29.4688 12.0408 29.5362 12.1997 29.6564 12.3169C29.7765 12.4341 29.9395 12.5 30.1094 12.5H32.6719C32.8418 12.5 33.0047 12.4341 33.1249 12.3169C33.245 12.1997 33.3125 12.0408 33.3125 11.875V6.875C33.3125 6.70924 33.245 6.55027 33.1249 6.43306C33.0047 6.31585 32.8418 6.25 32.6719 6.25H30.1094ZM32.0312 11.25H30.75V7.5H32.0312V11.25Z" fill="white"/>
</svg>

<svg width="39" height="33" fill="none" xmlns="http://www.w3.org/2000/svg"><path d="M35.875 17.5V1.875c0-.497-.203-.974-.563-1.325A1.949 1.949 0 0 0 33.953 0H1.922C1.412 0 .924.198.564.55.204.9 0 1.378 0 1.875v21.25c0 .497.203.974.564 1.325.36.352.848.55 1.358.55h12.172v3.75h-1.922a.648.648 0 0 0-.453.183.617.617 0 0 0-.188.442v2.5c0 .166.068.325.188.442.12.117.283.183.453.183h11.531c.17 0 .333-.066.453-.183a.617.617 0 0 0 .188-.442v-2.5a.617.617 0 0 0-.188-.442.648.648 0 0 0-.453-.183h-1.922V25h2.563v-1.25H1.922a.65.65 0 0 1-.453-.183.618.618 0 0 1-.188-.442V5h33.313v12.5h1.281ZM23.062 31.25h-10.25V30h10.25v1.25ZM17.297 25v1.25c0 .166.067.325.188.442a.648.648 0 0 0 .905 0 .617.617 0 0 0 .188-.442V25H20.5v3.75h-5.125V25h1.922ZM1.28 3.75V1.875c0-.166.068-.325.188-.442a.65.65 0 0 1 .453-.183h32.031a.65.65 0 0 1 .453.183c.12.117.188.276.188.442V3.75H1.28Z" fill="#fff"/><path d="M2.563 3.125c.353 0 .64-.28.64-.625a.633.633 0 0 0-.64-.625c-.354 0-.641.28-.641.625s.287.625.64.625ZM4.484 3.125c.354 0 .641-.28.641-.625a.633.633 0 0 0-.64-.625c-.354 0-.641.28-.641.625s.287.625.64.625ZM6.406 3.125c.354 0 .64-.28.64-.625a.633.633 0 0 0-.64-.625c-.354 0-.64.28-.64.625s.286.625.64.625ZM37.797 18.75H26.266a.649.649 0 0 0-.453.183.617.617 0 0 0-.188.442v12.5c0 .166.067.325.188.442.12.117.283.183.453.183h11.53c.17 0 .334-.066.454-.183a.617.617 0 0 0 .188-.442v-12.5a.617.617 0 0 0-.188-.442.649.649 0 0 0-.453-.183Zm-6.406 10V27.5h1.28v1.25h-1.28ZM32.67 30v1.25h-1.28V30h1.28Zm-5.765-2.5h3.203v1.25h-3.203V27.5Zm0-2.5h3.203v1.25h-3.203V25Zm4.485-5h1.28v3.75h-1.28V20Zm1.28 5v1.25h-1.28V25h1.28Zm1.282 0h3.203v1.25h-3.203V25Zm0 2.5h3.203v1.25h-3.203V27.5Zm3.203-3.75h-3.203V22.5h1.922v-1.25h-1.922V20h3.203v3.75ZM30.11 20v1.25h-1.922v1.25h1.922v1.25h-3.203V20h3.203Zm-3.203 10h3.203v1.25h-3.203V30Zm10.25 1.25h-3.203V30h3.203v1.25ZM3.203 8.75a.649.649 0 0 0-.453.183.617.617 0 0 0-.188.442v6.25c0 .166.068.325.188.442.12.117.283.183.453.183h2.563c.17 0 .332-.066.453-.183a.617.617 0 0 0 .187-.442v-6.25a.617.617 0 0 0-.187-.442.649.649 0 0 0-.453-.183H3.203ZM5.125 10v2.5H3.844V10h1.281Zm-1.281 5v-1.25h1.281V15H3.844ZM7.688 13.125a.649.649 0 0 0-.453.183.617.617 0 0 0-.188.442v3.75c0 .166.067.325.188.442.12.117.283.183.452.183h2.563c.17 0 .333-.066.453-.183a.617.617 0 0 0 .188-.442v-3.75a.617.617 0 0 0-.188-.442.65.65 0 0 0-.453-.183H7.687Zm1.921 3.75H8.33v-2.5h1.28v2.5ZM12.172 8.75a.649.649 0 0 0-.453.183.618.618 0 0 0-.188.442v6.875c0 .166.068.325.188.442.12.117.283.183.453.183h2.562c.17 0 .333-.066.453-.183a.617.617 0 0 0 .188-.442V9.375a.617.617 0 0 0-.188-.442.649.649 0 0 0-.453-.183h-2.562ZM14.094 10v3.125h-1.281V10h1.28Zm-1.281 5.625v-1.25h1.28v1.25h-1.28ZM16.656 13.125a.649.649 0 0 0-.453.183.617.617 0 0 0-.187.442v8.125c0 .166.067.325.187.442.12.117.283.183.453.183h2.563c.17 0 .333-.066.453-.183a.617.617 0 0 0 .187-.442V13.75a.617.617 0 0 0-.187-.442.649.649 0 0 0-.453-.183h-2.563Zm1.922 1.25v2.5h-1.281v-2.5h1.281Zm-1.281 6.875v-3.125h1.281v3.125h-1.281ZM21.14 11.25a.65.65 0 0 0-.452.183.617.617 0 0 0-.188.442v4.375c0 .166.067.325.188.442.12.117.283.183.453.183h2.562c.17 0 .333-.066.453-.183a.617.617 0 0 0 .188-.442v-4.375a.617.617 0 0 0-.188-.442.649.649 0 0 0-.453-.183h-2.562Zm1.922 4.375h-1.28V12.5h1.28v3.125ZM25.625 8.125a.649.649 0 0 0-.453.183.617.617 0 0 0-.188.442v5.625c0 .166.068.325.188.442a.65.65 0 0 0 .453.183h2.563a.65.65 0 0 0 .453-.183.617.617 0 0 0 .187-.442V8.75a.617.617 0 0 0-.188-.442.649.649 0 0 0-.453-.183h-2.562Zm1.922 1.25v1.875h-1.281V9.375h1.28Zm-1.281 4.375V12.5h1.28v1.25h-1.28ZM30.11 6.25a.649.649 0 0 0-.454.183.617.617 0 0 0-.187.442v5c0 .166.067.325.187.442.12.117.284.183.453.183h2.563a.65.65 0 0 0 .453-.183.617.617 0 0 0 .188-.442v-5a.617.617 0 0 0-.188-.442.649.649 0 0 0-.453-.183h-2.563Zm1.921 5H30.75V7.5h1.281v3.75Z" fill="#fff"/></svg>
